X:6
T:Grisse his delight
T:The sixteenth notes towards the end originally 8th notes.
C:Thomas Robinson, arr. Frank Nordberg
O:England
B:Thomas Robinson: "The Schoole of Musicke" (1603) no. 6
N:The sixteenth notes towards the end originally 8th notes.
R:Galliard
Z:Transcribed by Frank Nordberg - http://www.musicaviva.com
F:http://abc.musicaviva.com/tunes/robinson-thomas/robinson1603-06/robinson1603-06-gtr2.abc
V:1 Program 1 24 up %Classical guitar
V:2 Program 1 24 merge down %Classical guitar
M:3/4 %none in original
L:1/8
Q:1/4=180
K:G -8va % Bb with capo on thrid fret
V:1
"^Capo III"g2|f2d2B2|A4d2|c2A2F2|G4A2|[G4B4]^c2|d2B2G2|c2A4|[D4G4B4]g2|
V:2
z2|z2z2G2|F2D2B,2|A,4D2|B,2G,2F,2|G,2E,2A,2|[D4F4]E2|[C4E4][D2F2]|G,6|
%
V:1
fe dc B2|A4d2|cB AG F2|G4A2|[G4B4][A2^c2]|dc BA G2|cB AG F2|G4B2|
V:2
z2z2G2|F2E2B,2|A,4D2|B,2G,2F,2|G,2E,2A,2|D4E2|C4D2|B,2G,4|
%
V:1
A3Bc2|e4dc|B3^cd2-|d4fg|a6|gfe2 f2|g3d [G2c2e2]|[G4d4]B2|
V:2
[D4F4]A,2-|A,B,C2D2|G6|FED4-|D2CB,A,2-|[A,4c4][BD-][DA]|[E3G3]B,C2|B,2G,4|
%
V:1
A3B cd|e4 dc|B3^cd2-|d3e fg|a6|gfe2f2|g3d[c2e2]|[G6d6]|
V:2
[D4F4]A,2-|A,B,C2D2-|D2G4|FED4-|D2CB,A,2-|[A,4c4][BD-][DA]|[E2G2B,2] B,3C|B,3A,G,2|
%
V:1
c6|z2B^c de|f6|z2 ef ga|b3a[e2g2]|[c2a2][A2d2f2]ef|g3d[G2c2e2]|[G6d6]|
V:2
z2CD EF|G6|z2DE FG|A6|G4C2|A,2D4|[E3G3]B,C2|B,3A,G,2|
%
V:1
c6|z2B^c de|f6|z2 ef ga|b3a[e2g2]|[c2a2]f2ef|[B3g3]f/e/ d/c/B/A/|G4|]
V:2
z2CD EF|G6|z2DE FG|A6|G4C2|A,2[D4A4d4]|G6|z2G,2|]
W:
W:
W:  From Musica Viva - http://www.musicaviva.com
W:  the Internet center for free sheet music downloads.
